trunk/WorldWind/resources/milstd2525/icons/ems/efiadn---------.svg

<?xml version="1.0" encoding="UTF-8" standalone="no"?>
<!--
Copyright (C) 2012 United States Government as represented by the Administrator of the
National Aeronautics and Space Administration.
All Rights Reserved.
-->

<!--
MIL-STD-2525 tactical symbol icon image. During icon composition this image is multiplied by the desired frame color 
(e.g. black), then drawn on top of the frame and fill.
-->

<svg
   xmlns:dc="http://purl.org/dc/elements/1.1/"
   xmlns:cc="http://creativecommons.org/ns#"
   xmlns:rdf="http://www.w3.org/1999/02/22-rdf-syntax-ns#"
   xmlns:svg="http://www.w3.org/2000/svg"
   xmlns="http://www.w3.org/2000/svg"
   xmlns:sodipodi="http://sodipodi.sourceforge.net/DTD/sodipodi-0.dtd"
   xmlns:inkscape="http://www.inkscape.org/namespaces/inkscape"
   height="400px"
   viewBox="0 0 400 400"
   width="400px"
   id="svg2"
   version="1.1"
   inkscape:version="0.48.2 r9819"
   sodipodi:docname="efiadn---------.svg">
  <metadata
     id="metadata22">
    <rdf:RDF>
      <cc:Work
         rdf:about="">
        <dc:format>image/svg+xml</dc:format>
        <dc:type
           rdf:resource="http://purl.org/dc/dcmitype/StillImage" />
      </cc:Work>
    </rdf:RDF>
  </metadata>
  <defs
     id="defs20" />
  <sodipodi:namedview
     pagecolor="#ffffff"
     bordercolor="#666666"
     borderopacity="1"
     objecttolerance="10"
     gridtolerance="10"
     guidetolerance="10"
     inkscape:pageopacity="0"
     inkscape:pageshadow="2"
     inkscape:window-width="640"
     inkscape:window-height="480"
     id="namedview18"
     showgrid="false"
     inkscape:zoom="0.59"
     inkscape:cx="200"
     inkscape:cy="200"
     inkscape:window-x="0"
     inkscape:window-y="0"
     inkscape:window-maximized="0"
     inkscape:current-layer="svg2" />
  <g
     transform="matrix(100,0,0,100,70,74)"
     id="g4"
     style="stroke:#000000;stroke-width:0.06;stroke-miterlimit:4;stroke-opacity:1;stroke-dasharray:0.12, 0.06;stroke-dashoffset:0">
    <path
       inkscape:connector-curvature="0"
       d="M 0.98002,0.785776 1.049,0.904933 C 1.12282,0.865874 1.17018,0.823398 1.28732,0.823398 l 0.01255,0 c 0.14463,0 0.17272,0.064791 0.24161,0.079854 L 1.60717,0.785776 c -0.23591,-0.124831 -0.3909,-0.125012 -0.62715,0 z"
       style="fill:#ffffff;stroke:#000000;stroke-width:0.06;stroke-miterlimit:4;stroke-opacity:1;stroke-dasharray:0.12, 0.06;stroke-dashoffset:0"
       id="path6" />
    <path
       inkscape:connector-curvature="0"
       d="m 1.37513,0.221335 c 0,0.01613 0.10381,0.051721 0.12552,0.06263 0.0314,0.015772 0.08689,0.060917 0.10657,0.087839 0.05291,0.072358 0.10658,0.15128 0.10658,0.275996 0,0.203717 -0.1861,0.40765 -0.38884,0.40765 l 0,0.07526 c 0.05769,0.0048 0.11057,0.08372 0.08153,0.14424 0.01594,0.00372 0.06187,0.03136 0.06271,0.03136 0.01806,0 0.12356,-0.1756 0.35748,-0.1756 l 0.00627,0 c 0.11168,0 0.22458,0.0642 0.27763,0.12375 0.04166,0.04675 0.13222,0.19061 0.12002,0.2843 L 2.21,1.67467 2.2406,1.68888 C 2.24246,1.66659 2.2609,1.63097 2.26843,1.59755 2.27531,1.56702 2.27823,1.5226 2.27823,1.48819 l 0,-0.08153 c 0,-0.21124 -0.20817,-0.468828 -0.37629,-0.508001 0,-0.12572 0.01074,-0.159091 -0.02271,-0.272043 C 1.85836,0.55614 1.8153,0.466439 1.77177,0.420494 1.64523,0.286911 1.58445,0.24501 1.37513,0.19625 l 0,0.025087 z"
       style="fill:#ffffff;stroke:#000000;stroke-width:0.06;stroke-miterlimit:4;stroke-opacity:1;stroke-dasharray:0.12, 0.06;stroke-dashoffset:0"
       id="path8" />
    <path
       inkscape:connector-curvature="0"
       d="m 0.685256,0.85476 0,0.025087 c 0,0.012389 -0.123705,0.079594 -0.144335,0.093988 C 0.501291,1.00148 0.454118,1.05479 0.423551,1.09478 0.35546,1.18384 0.302689,1.29658 0.302689,1.45056 c 0,0.10937 0.025016,0.15097 0.044661,0.23371 L 0.377949,1.67006 C 0.37485,1.63284 0.359134,1.61197 0.359134,1.56972 l 0,-0.05018 c 0,-0.19468 0.197319,-0.38883 0.401382,-0.38883 l 0.043897,0 c 0.064028,0 0.148465,0.03212 0.188197,0.05639 0.05304,0.03241 0.0888,0.09052 0.13159,0.11908 l 0.05651,-0.02495 0,-0.04391 c 0,-0.05077 0.04149,-0.09729 0.08153,-0.10661 l 0,-0.07526 C 1.07366,1.05125 0.879674,0.860199 0.879674,0.666616 l 0,-0.03763 c 0,-0.10289 0.052988,-0.213654 0.105039,-0.26498 C 1.01655,0.332608 1.04641,0.306817 1.08517,0.28258 1.106,0.269553 1.21206,0.246084 1.21206,0.221336 l 0,-0.025086 C 1.04557,0.235041 0.919218,0.292309 0.828332,0.408313 0.720647,0.545754 0.685257,0.633514 0.685257,0.854762 z"
       style="fill:#ffffff;stroke:#000000;stroke-width:0.06;stroke-miterlimit:4;stroke-opacity:1;stroke-dasharray:0.12, 0.06;stroke-dashoffset:0"
       id="path10" />
    <path
       inkscape:connector-curvature="0"
       d="m 0.747969,1.28123 c 0,0.18486 0.170693,0.41826 0.313001,0.45124 L 1.11799,1.61989 C 0.955497,1.53391 0.879674,1.42136 0.879674,1.19342 l -0.131705,0 z"
       style="fill:#ffffff;stroke:#000000;stroke-width:0.06;stroke-miterlimit:4;stroke-opacity:1;stroke-dasharray:0.12, 0.06;stroke-dashoffset:0"
       id="path12" />
    <path
       inkscape:connector-curvature="0"
       d="M 1.46293,1.62616 1.52564,1.73277 C 1.6067,1.7139 1.71878,1.60273 1.75769,1.53837 1.81406,1.44515 1.84549,1.34277 1.84549,1.19342 l -0.13797,0 C 1.71043,1.3241 1.70534,1.37246 1.64482,1.46313 1.61417,1.50905 1.60209,1.51543 1.56489,1.55252 1.5386,1.57873 1.47554,1.60896 1.46293,1.62616 z"
       style="fill:#ffffff;stroke:#000000;stroke-width:0.06;stroke-miterlimit:4;stroke-opacity:1;stroke-dasharray:0.12, 0.06;stroke-dashoffset:0"
       id="path14" />
    <path
       inkscape:connector-curvature="0"
       d="m 1.40648,1.53836 c 0,-0.09065 0.02207,-0.11512 0.03763,-0.18187 L 1.38148,1.32496 C 1.32017,1.37834 1.27122,1.36475 1.21206,1.32513 L 1.15037,1.35858 c 0.00466,0.0662 0.05139,0.09689 0.0368,0.2176 C 1.17776,1.65393 1.15863,1.72115 1.12054,1.77296 1.04839,1.8711 0.945515,1.95855 0.779322,1.95855 l -0.025086,0 c -0.116575,0 -0.254748,-0.0814 -0.301031,-0.15052 L 0.422606,1.82225 c 0.08213,0.12212 0.285504,0.24919 0.494693,0.24919 l 0.006272,0 c 0.160939,0 0.273109,-0.06681 0.370019,-0.1317 0.09253,0.06196 0.19087,0.12543 0.34494,0.12543 l 0.07526,0 c 0.0958,0 0.20591,-0.04083 0.26465,-0.08028 C 2.02451,1.95396 2.14544,1.87161 2.15907,1.82058 2.13244,1.81347 2.14809,1.80803 2.12771,1.80803 2.11467,1.80803 2.08528,1.85565 2.07259,1.8658 2.05442,1.88034 2.02818,1.89346 2.00743,1.90726 1.97325,1.92999 1.89042,1.95228 1.83295,1.95228 l -0.04391,0 c -0.19737,0 -0.38256,-0.19316 -0.38256,-0.39511 z"
       style="fill:#ffffff;stroke:#000000;stroke-width:0.06;stroke-miterlimit:4;stroke-opacity:1;stroke-dasharray:0.12, 0.06;stroke-dashoffset:0"
       id="path16" />
  </g>
</svg>

<?xml version="1.0"?>
<!--
Copyright (C) 2012 United States Government as represented by the Administrator of the
National Aeronautics and Space Administration.
All Rights Reserved.
-->

<!DOCTYPE svg PUBLIC "-//W3C//DTD SVG 1.1//EN" "http://www.w3.org/Graphics/SVG/1.1/DTD/svg11.dtd" >
<!--
MIL-STD-2525 tactical symbol icon image. During icon composition this image is multiplied by the desired frame color 
(e.g. black), then drawn on top of the frame and fill.
-->
<svg xmlns:xlink="http://www.w3.org/1999/xlink" height="400px" viewBox="0 0 400 400" width="400px"><g transform="scale(100) translate(0.7 0.74)"><path d="M0.98002 0.785776 L1.049 0.904933 C1.12282 0.865874 1.17018 0.823398 1.28732 0.823398     L1.29987 0.823398 C1.4445 0.823398 1.47259 0.888189 1.54148 0.903252 L1.60717     0.785776 C1.37126 0.660945 1.21627 0.660764 0.98002 0.785776 z" style="fill:rgb(255,255,255)"/><path d="M1.37513 0.221335 C1.37513 0.237465 1.47894 0.273056 1.50065 0.283965 C1.53205 0.299737     1.58754 0.344882 1.60722 0.371804 C1.66013 0.444162 1.7138 0.523084 1.7138     0.6478 C1.7138 0.851517 1.5277 1.05545 1.32496 1.05545 L1.32496 1.13071     C1.38265 1.13551 1.43553 1.21443 1.40649 1.27495 C1.42243 1.27867 1.46836     1.30631 1.4692 1.30631 C1.48726 1.30631 1.59276 1.13071 1.82668 1.13071 L1.83295     1.13071 C1.94463 1.13071 2.05753 1.19491 2.11058 1.25446 C2.15224 1.30121     2.2428 1.44507 2.2306 1.53876 L2.21 1.67467 L2.2406 1.68888 C2.24246 1.66659     2.2609 1.63097 2.26843 1.59755 C2.27531 1.56702 2.27823 1.5226 2.27823 1.48819     L2.27823 1.40666 C2.27823 1.19542 2.07006 0.937832 1.90194 0.898659 C1.90194     0.772939 1.91268 0.739568 1.87923 0.626616 C1.85836 0.55614 1.8153 0.466439     1.77177 0.420494 C1.64523 0.286911 1.58445 0.24501 1.37513 0.19625 L1.37513     0.221337 z" style="fill:rgb(255,255,255)"/><path d="M0.685256 0.85476 L0.685256 0.879847 C0.685256 0.892236 0.561551 0.959441 0.540921     0.973835 C0.501291 1.00148 0.454118 1.05479 0.423551 1.09478 C0.35546 1.18384     0.302689 1.29658 0.302689 1.45056 C0.302689 1.55993 0.327705 1.60153 0.34735     1.68427 L0.377949 1.67006 C0.37485 1.63284 0.359134 1.61197 0.359134 1.56972     L0.359134 1.51954 C0.359134 1.32486 0.556453 1.13071 0.760516 1.13071     L0.804413 1.13071 C0.868441 1.13071 0.952878 1.16283 0.99261 1.1871 C1.04565     1.21951 1.08141 1.27762 1.1242 1.30618 L1.18071 1.28123 L1.18071 1.23732 C1.18071     1.18655 1.2222 1.14003 1.26224 1.13071 L1.26224 1.05545 C1.07366 1.05125     0.879674 0.860199 0.879674 0.666616 L0.879674 0.628986 C0.879674 0.526096     0.932662 0.415332 0.984713 0.364006 C1.01655 0.332608 1.04641 0.306817 1.08517     0.28258 C1.106 0.269553 1.21206 0.246084 1.21206 0.221336 L1.21206 0.19625     C1.04557 0.235041 0.919218 0.292309 0.828332 0.408313 C0.720647 0.545754     0.685257 0.633514 0.685257 0.854762 z" style="fill:rgb(255,255,255)"/><path d="M0.747969 1.28123 C0.747969 1.46609 0.918662 1.69949 1.06097 1.73247 L1.11799 1.61989     C0.955497 1.53391 0.879674 1.42136 0.879674 1.19342 L0.747969 1.19342 z" style="fill:rgb(255,255,255)"/><path d="M1.46293 1.62616 L1.52564 1.73277 C1.6067 1.7139 1.71878 1.60273 1.75769 1.53837     C1.81406 1.44515 1.84549 1.34277 1.84549 1.19342 L1.70752 1.19342 C1.71043 1.3241     1.70534 1.37246 1.64482 1.46313 C1.61417 1.50905 1.60209 1.51543 1.56489     1.55252 C1.5386 1.57873 1.47554 1.60896 1.46293 1.62616 z" style="fill:rgb(255,255,255)"/><path d="M1.40648 1.53836 C1.40648 1.44771 1.42855 1.42324 1.44411 1.35649 L1.38148 1.32496     C1.32017 1.37834 1.27122 1.36475 1.21206 1.32513 L1.15037 1.35858 C1.15503     1.42478 1.20176 1.45547 1.18717 1.57618 C1.17776 1.65393 1.15863 1.72115 1.12054     1.77296 C1.04839 1.8711 0.945515 1.95855 0.779322 1.95855 L0.754236 1.95855     C0.637661 1.95855 0.499488 1.87715 0.453205 1.80803 L0.422606 1.82225     C0.504736 1.94437 0.70811 2.07144 0.917299 2.07144 L0.923571 2.07144 C1.08451     2.07144 1.19668 2.00463 1.29359 1.93974 C1.38612 2.0017 1.48446 2.06517 1.63853     2.06517 L1.71379 2.06517 C1.80959 2.06517 1.9197 2.02434 1.97844 1.98489     C2.02451 1.95396 2.14544 1.87161 2.15907 1.82058 C2.13244 1.81347 2.14809     1.80803 2.12771 1.80803 C2.11467 1.80803 2.08528 1.85565 2.07259 1.8658 C2.05442     1.88034 2.02818 1.89346 2.00743 1.90726 C1.97325 1.92999 1.89042 1.95228     1.83295 1.95228 L1.78904 1.95228 C1.59167 1.95228 1.40648 1.75912 1.40648     1.55717 z" style="fill:rgb(255,255,255)"/></g></svg>
